; G-Code generated by Simplify3D(R) Version 3.1.1
; Oct 21, 2017 at 12:06:30 PM
; Settings Summary
;   processName,Process1
;   applyToModels,Nexus5Xcase
;   profileName,Anet new2 with Support (modified)
;   profileVersion,2017-10-09 11:21:31
;   baseProfile,Default
;   printMaterial,PLA
;   printQuality,Medium
;   printExtruders,
;   extruderName,Extruder 1
;   extruderToolheadNumber,0
;   extruderDiameter,0.4
;   extruderAutoWidth,0
;   extruderWidth,0.4
;   extrusionMultiplier,1
;   extruderUseRetract,1
;   extruderRetractionDistance,4
;   extruderExtraRestartDistance,0
;   extruderRetractionZLift,0
;   extruderRetractionSpeed,4800
;   extruderUseCoasting,0
;   extruderCoastingDistance,0.2
;   extruderUseWipe,1
;   extruderWipeDistance,5
;   primaryExtruder,0
;   layerHeight,0.2
;   topSolidLayers,3
;   bottomSolidLayers,3
;   perimeterOutlines,3
;   printPerimetersInsideOut,1
;   startPointOption,2
;   startPointOriginX,0
;   startPointOriginY,0
;   startPointOriginZ,300
;   sequentialIslands,0
;   spiralVaseMode,0
;   firstLayerHeightPercentage,90
;   firstLayerWidthPercentage,110
;   firstLayerUnderspeed,0.45
;   useRaft,0
;   raftExtruder,0
;   raftLayers,1
;   raftOffset,3
;   raftSeparationDistance,0.25
;   raftInfill,50
;   disableRaftBaseLayers,0
;   useSkirt,1
;   skirtExtruder,0
;   skirtLayers,1
;   skirtOutlines,2
;   skirtOffset,3
;   usePrimePillar,0
;   primePillarExtruder,999
;   primePillarWidth,12
;   primePillarLocation,7
;   primePillarSpeedMultiplier,1
;   useOozeShield,0
;   oozeShieldExtruder,999
;   oozeShieldOffset,2
;   oozeShieldOutlines,1
;   oozeShieldSidewallShape,1
;   oozeShieldSidewallAngle,30
;   oozeShieldSpeedMultiplier,1
;   infillExtruder,0
;   internalInfillPattern,Full Honeycomb
;   externalInfillPattern,Rectilinear
;   infillPercentage,30
;   outlineOverlapPercentage,15
;   infillExtrusionWidthPercentage,100
;   minInfillLength,4
;   infillLayerInterval,1
;   infillAngles,0,120,-120
;   overlapInfillAngles,0
;   generateSupport,1
;   supportExtruder,0
;   supportInfillPercentage,20
;   supportExtraInflation,0
;   denseSupportLayers,0
;   denseSupportInfillPercentage,20
;   supportLayerInterval,1
;   supportHorizontalPartOffset,0.3
;   supportUpperSeparationLayers,1
;   supportLowerSeparationLayers,1
;   supportType,0
;   supportGridSpacing,1.5
;   maxOverhangAngle,47
;   supportAngles,0
;   temperatureName,Extruder 1 Temperature,Heated Bed
;   temperatureNumber,0,0
;   temperatureSetpointCount,2,2
;   temperatureSetpointLayers,1,2,1,2
;   temperatureSetpointTemperatures,200,190,70,60
;   temperatureStabilizeAtStartup,1,1
;   temperatureHeatedBed,0,1
;   temperatureRelayBetweenLayers,0,0
;   temperatureRelayBetweenLoops,0,0
;   fanLayers,1,2
;   fanSpeeds,0,70
;   blipFanToFullPower,0
;   adjustSpeedForCooling,1
;   minSpeedLayerTime,15
;   minCoolingSpeedSlowdown,20
;   increaseFanForCooling,0
;   minFanLayerTime,45
;   maxCoolingFanSpeed,100
;   increaseFanForBridging,0
;   bridgingFanSpeed,100
;   use5D,1
;   relativeEdistances,0
;   allowEaxisZeroing,1
;   independentExtruderAxes,0
;   includeM10123,0
;   stickySupport,1
;   applyToolheadOffsets,0
;   gcodeXoffset,0
;   gcodeYoffset,0
;   gcodeZoffset,0
;   overrideMachineDefinition,1
;   machineTypeOverride,0
;   strokeXoverride,200
;   strokeYoverride,200
;   strokeZoverride,240
;   originOffsetXoverride,0
;   originOffsetYoverride,0
;   originOffsetZoverride,0
;   homeXdirOverride,-1
;   homeYdirOverride,-1
;   homeZdirOverride,-1
;   flipXoverride,1
;   flipYoverride,-1
;   flipZoverride,1
;   toolheadOffsets,0,0|0,0|0,0|0,0|0,0|0,0
;   overrideFirmwareConfiguration,1
;   firmwareTypeOverride,RepRap (Marlin/Repetier/Sprinter)
;   GPXconfigOverride,r2
;   baudRateOverride,115200
;   overridePrinterModels,0
;   printerModelsOverride
;   startingGcode,G28 ; home all axes,G1 X0 Y20 Z0.2 F3000 ; get ready to prime,G92 E0 ; reset extrusion distance,G1 X100 E20 F600 ; prime nozzle
;   layerChangeGcode,
;   retractionGcode,
;   toolChangeGcode,
;   endingGcode,M104 S0 ; turn off extruder,M140 S0 ; turn off bed,G1 E-1 F300	; retract the filament a bit,G28 X0 Y0; home,M84 ; disable motors,M107 ; shut off fan
;   exportFileFormat,gcode
;   celebration,0
;   celebrationSong,Random Song
;   postProcessing,
;   defaultSpeed,4500
;   outlineUnderspeed,0.5
;   solidInfillUnderspeed,0.8
;   supportUnderspeed,0.6
;   rapidXYspeed,4800
;   rapidZspeed,1002
;   minBridgingArea,50
;   bridgingExtraInflation,0
;   bridgingExtrusionMultiplier,1
;   bridgingSpeedMultiplier,1.25
;   filamentDiameter,1.75
;   filamentPricePerKg,120
;   filamentDensity,1.25
;   useMinPrintHeight,0
;   minPrintHeight,0
;   useMaxPrintHeight,0
;   maxPrintHeight,0
;   useDiaphragm,0
;   diaphragmLayerInterval,20
;   robustSlicing,1
;   mergeAllIntoSolid,0
;   onlyRetractWhenCrossingOutline,0
;   retractBetweenLayers,1
;   useRetractionMinTravel,0
;   retractionMinTravel,3
;   retractWhileWiping,1
;   onlyWipeOutlines,1
;   avoidCrossingOutline,1
;   maxMovementDetourFactor,3
;   toolChangeRetractionDistance,12
;   toolChangeExtraRestartDistance,-0.5
;   toolChangeRetractionSpeed,600
;   allowThinWallGapFill,0
;   thinWallAllowedOverlapPercentage,10
;   horizontalSizeCompensation,0
G90
M82
M106 S0
M140 S70
M190 S70
M104 S200 T0
M109 S200 T0
G28 ; home all axes
G1 X0 Y20 Z0.2 F3000 ; get ready to prime
G92 E0 ; reset extrusion distance
G1 X100 E20 F600 ; prime nozzle
G92 E0
G1 E-4.0000 F4800
G1 Z0.180 F1002
; layer 1, Z = 0.18
T0
; tool H0.200 W0.440
; skirt
G1 X31.251 Y62.895 F4800
G1 E0.0000 F1440
G92 E0
G1 X31.655 Y62.693 E0.0165 F2025
G1 X31.692 Y62.677 E0.0180
G1 X33.659 Y62.010 E0.0940
G1 X33.687 Y62.002 E0.0951
G1 X34.005 Y61.928 E0.1070
G1 X34.034 Y61.922 E0.1081
G1 X35.012 Y61.795 E0.1441
G1 X35.031 Y61.793 E0.1448
G1 X35.239 Y61.779 E0.1525
G1 X35.258 Y61.779 E0.1532
G1 X60.844 Y61.705 E1.0893
G1 X60.851 Y61.705 E1.0895
G1 X107.737 Y61.736 E2.8049
G1 X107.740 Y61.736 E2.8050
G1 X140.143 Y61.802 E3.9905
G1 X164.883 Y61.771 E4.8957
G1 X164.924 Y61.774 E4.8972
G1 X165.371 Y61.835 E4.9137
G1 X165.411 Y61.843 E4.9152
G1 X166.798 Y62.230 E4.9679
G1 X166.808 Y62.233 E4.9682
G1 X166.909 Y62.265 E4.9721
G1 X166.919 Y62.268 E4.9725
G1 X168.336 Y62.764 E5.0274
G1 X168.353 Y62.770 E5.0281
G1 X168.540 Y62.849 E5.0355
G1 X168.557 Y62.856 E5.0362
G1 X170.331 Y63.733 E5.1086
G1 X170.360 Y63.750 E5.1098
G1 X170.675 Y63.953 E5.1235
G1 X170.702 Y63.973 E5.1247
G1 X171.447 Y64.583 E5.1600
G1 X171.463 Y64.596 E5.1607
G1 X171.629 Y64.753 E5.1691
G1 X171.644 Y64.767 E5.1698
G1 X173.405 Y66.672 E5.2648
G1 X173.438 Y66.714 E5.2667
G1 X173.758 Y67.217 E5.2885
G1 X173.783 Y67.265 E5.2905
G1 X175.046 Y70.365 E5.4130
G1 X175.055 Y70.391 E5.4140
G1 X175.142 Y70.677 E5.4249
G1 X175.149 Y70.703 E5.4259
G1 X175.465 Y72.219 E5.4825
G1 X175.467 Y72.234 E5.4831
G1 X175.494 Y72.406 E5.4895
G1 X175.496 Y72.422 E5.4901
G1 X175.545 Y72.915 E5.5082
G1 X175.547 Y72.929 E5.5087
G1 X175.555 Y73.084 E5.5144
G1 X175.555 Y73.098 E5.5149
G1 X175.570 Y75.616 E5.6070
G1 X175.570 Y75.618 E5.6071
G1 X175.570 Y75.639 E5.6079
G1 X175.396 Y106.357 E6.7317
G1 X175.484 Y127.156 E7.4927
G1 X175.484 Y127.168 E7.4931
G1 X175.479 Y127.298 E7.4979
G1 X175.479 Y127.309 E7.4983
G1 X175.426 Y128.009 E7.5240
G1 X175.420 Y128.053 E7.5256
G1 X175.310 Y128.535 E7.5437
G1 X175.297 Y128.578 E7.5453
G1 X174.882 Y129.638 E7.5870
G1 X174.743 Y130.604 E7.6227
G1 X174.730 Y130.657 E7.6247
G1 X174.538 Y131.227 E7.6467
G1 X174.516 Y131.277 E7.6487
G1 X174.057 Y132.106 E7.6834
G1 X174.049 Y132.120 E7.6840
G1 X173.956 Y132.267 E7.6903
G1 X173.947 Y132.280 E7.6909
G1 X172.473 Y134.382 E7.7848
G1 X172.489 Y134.565 E7.7915
G1 X172.351 Y134.859 E7.8034
G1 X169.400 Y136.884 E7.9344
G1 X169.365 Y136.905 E7.9359
G1 X168.967 Y137.105 E7.9522
G1 X168.930 Y137.121 E7.9537
G1 X167.564 Y137.591 E8.0065
G1 X167.553 Y137.595 E8.0069
G1 X167.429 Y137.632 E8.0116
G1 X167.418 Y137.635 E8.0121
G1 X165.693 Y138.082 E8.0773
G1 X165.656 Y138.090 E8.0786
G1 X165.247 Y138.143 E8.0937
G1 X165.210 Y138.145 E8.0951
G1 X130.193 Y138.285 E9.3762
G1 X130.184 Y138.285 E9.3765
G1 X99.878 Y138.250 E10.4853
G1 X94.140 Y138.397 E10.6953
G1 X94.136 Y138.397 E10.6955
G1 X94.091 Y138.397 E10.6971
G1 X94.087 Y138.397 E10.6972
G1 X84.609 Y138.383 E11.0440
G1 X84.602 Y138.383 E11.0442
G1 X35.254 Y138.131 E12.8497
G1 X35.232 Y138.130 E12.8505
G1 X34.984 Y138.110 E12.8596
G1 X34.961 Y138.108 E12.8604
G1 X33.721 Y137.913 E12.9064
G1 X33.703 Y137.910 E12.9071
G1 X33.499 Y137.864 E12.9147
G1 X33.480 Y137.859 E12.9154
G1 X31.753 Y137.358 E12.9812
G1 X31.719 Y137.346 E12.9825
G1 X31.353 Y137.190 E12.9971
G1 X31.320 Y137.174 E12.9984
G1 X28.853 Y135.751 E13.1026
G1 X28.810 Y135.721 E13.1045
G1 X28.368 Y135.351 E13.1256
G1 X28.331 Y135.314 E13.1275
G1 X26.572 Y133.222 E13.2275
G1 X26.556 Y133.201 E13.2285
G1 X26.392 Y132.968 E13.2389
G1 X26.378 Y132.946 E13.2399
G1 X26.073 Y132.423 E13.2620
G1 X26.062 Y132.402 E13.2629
G1 X25.948 Y132.163 E13.2726
G1 X25.938 Y132.141 E13.2735
G1 X24.969 Y129.617 E13.3724
G1 X24.964 Y129.602 E13.3730
G1 X24.909 Y129.434 E13.3794
G1 X24.905 Y129.418 E13.3800
G1 X24.666 Y128.518 E13.4141
G1 X24.658 Y128.479 E13.4156
G1 X24.603 Y128.044 E13.4316
G1 X24.601 Y128.005 E13.4330
G1 X24.655 Y118.627 E13.7762
G1 X24.552 Y91.377 E14.7731
G1 X24.552 Y91.370 E14.7734
G1 X24.557 Y82.916 E15.0826
G1 X24.557 Y82.914 E15.0827
G1 X24.557 Y82.888 E15.0837
G1 X24.557 Y82.885 E15.0838
G1 X24.738 Y71.866 E15.4870
G1 X24.741 Y71.830 E15.4883
G1 X24.794 Y71.440 E15.5027
G1 X24.801 Y71.405 E15.5040
G1 X25.400 Y69.103 E15.5910
G1 X25.409 Y69.075 E15.5921
G1 X25.522 Y68.768 E15.6040
G1 X25.534 Y68.741 E15.6051
G1 X26.002 Y67.779 E15.6443
G1 X26.017 Y67.751 E15.6454
G1 X26.199 Y67.459 E15.6580
G1 X26.216 Y67.433 E15.6592
G1 X27.546 Y65.723 E15.7384
G1 X27.565 Y65.701 E15.7395
G1 X27.782 Y65.471 E15.7511
G1 X27.803 Y65.451 E15.7521
G1 X29.132 Y64.290 E15.8167
G1 X29.138 Y64.285 E15.8169
G1 X29.203 Y64.231 E15.8200
G1 X29.209 Y64.226 E15.8203
G1 X30.098 Y63.526 E15.8618
G1 X30.142 Y63.497 E15.8636
G1 X30.645 Y63.226 E15.8846
G1 X30.693 Y63.206 E15.8865
G1 X30.886 Y63.142 E15.8939
G1 X31.216 Y62.916 E15.9085
G1 X31.251 Y62.895 E15.9100
G92 E0
G1 E-4.0000 F4800
G1 X31.442 Y63.246 F4800
G1 E0.0000 F4800
G92 E0
G1 X31.821 Y63.057 E0.0155 F2025
G1 X31.834 Y63.052 E0.0160
G1 X33.778 Y62.392 E0.0911
G1 X33.787 Y62.389 E0.0915
G1 X34.086 Y62.320 E0.1027
G1 X34.096 Y62.318 E0.1031
G1 X35.057 Y62.193 E0.1385
G1 X35.063 Y62.192 E0.1388
G1 X35.259 Y62.179 E0.1459
G1 X35.266 Y62.179 E0.1462
G1 X60.845 Y62.105 E1.0820
G1 X60.851 Y62.105 E1.0822
G1 X107.737 Y62.136 E2.7976
G1 X107.739 Y62.136 E2.7977
G1 X140.143 Y62.202 E3.9832
G1 X164.870 Y62.171 E4.8879
G1 X164.884 Y62.172 E4.8884
G1 X165.304 Y62.229 E4.9039
G1 X165.317 Y62.232 E4.9044
G1 X166.688 Y62.614 E4.9565
G1 X166.691 Y62.615 E4.9566
G1 X166.787 Y62.645 E4.9603
G1 X166.790 Y62.646 E4.9604
G1 X168.198 Y63.139 E5.0150
G1 X168.204 Y63.141 E5.0152
G1 X168.379 Y63.215 E5.0222
G1 X168.385 Y63.218 E5.0224
G1 X170.143 Y64.087 E5.0941
G1 X170.153 Y64.093 E5.0946
G1 X170.448 Y64.283 E5.1074
G1 X170.458 Y64.290 E5.1078
G1 X171.188 Y64.888 E5.1424
G1 X171.194 Y64.892 E5.1426
G1 X171.350 Y65.039 E5.1505
G1 X171.355 Y65.044 E5.1507
G1 X173.100 Y66.930 E5.2447
G1 X173.111 Y66.944 E5.2454
G1 X173.411 Y67.416 E5.2659
G1 X173.419 Y67.432 E5.2665
G1 X174.672 Y70.507 E5.3880
G1 X174.675 Y70.516 E5.3883
G1 X174.757 Y70.785 E5.3986
G1 X174.759 Y70.794 E5.3990
G1 X175.072 Y72.295 E5.4551
G1 X175.073 Y72.300 E5.4553
G1 X175.098 Y72.462 E5.4612
G1 X175.098 Y72.467 E5.4614
G1 X175.147 Y72.950 E5.4792
G1 X175.147 Y72.955 E5.4794
G1 X175.155 Y73.101 E5.4847
G1 X175.155 Y73.105 E5.4849
G1 X175.170 Y75.618 E5.5768
G1 X175.170 Y75.637 E5.5775
G1 X174.996 Y106.357 E6.7014
G1 X175.084 Y127.154 E7.4623
G1 X175.084 Y127.158 E7.4625
G1 X175.080 Y127.280 E7.4669
G1 X175.079 Y127.284 E7.4671
G1 X175.029 Y127.965 E7.4921
G1 X175.026 Y127.979 E7.4926
G1 X174.923 Y128.432 E7.5096
G1 X174.919 Y128.446 E7.5101
G1 X174.493 Y129.535 E7.5529
G1 X174.350 Y130.529 E7.5897
G1 X174.345 Y130.547 E7.5903
G1 X174.165 Y131.082 E7.6110
G1 X174.158 Y131.099 E7.6117
G1 X173.709 Y131.907 E7.6455
G1 X173.707 Y131.912 E7.6457
G1 X173.620 Y132.050 E7.6517
G1 X173.617 Y132.055 E7.6519
G1 X172.061 Y134.271 E7.7509
G1 X172.081 Y134.493 E7.7591
G1 X172.035 Y134.591 E7.7630
G1 X169.185 Y136.547 E7.8895
G1 X169.173 Y136.554 E7.8900
G1 X168.799 Y136.742 E7.9053
G1 X168.787 Y136.747 E7.9058
G1 X167.437 Y137.212 E7.9580
G1 X167.434 Y137.213 E7.9582
G1 X167.318 Y137.248 E7.9626
G1 X167.314 Y137.249 E7.9627
G1 X165.605 Y137.692 E8.0273
G1 X165.593 Y137.695 E8.0278
G1 X165.208 Y137.744 E8.0420
G1 X165.196 Y137.745 E8.0424
G1 X130.192 Y137.885 E9.3231
G1 X130.184 Y137.885 E9.3234
G1 X99.873 Y137.850 E10.4323
G1 X94.131 Y137.997 E10.6425
G1 X94.088 Y137.997 E10.6440
G1 X84.610 Y137.983 E10.9907
G1 X84.604 Y137.983 E10.9909
G1 X35.264 Y137.731 E12.7961
G1 X35.256 Y137.731 E12.7964
G1 X35.023 Y137.712 E12.8049
G1 X35.016 Y137.711 E12.8052
G1 X33.790 Y137.519 E12.8506
G1 X33.783 Y137.518 E12.8508
G1 X33.592 Y137.475 E12.8580
G1 X33.586 Y137.474 E12.8583
G1 X31.876 Y136.978 E12.9234
G1 X31.864 Y136.974 E12.9238
G1 X31.521 Y136.827 E12.9375
G1 X31.510 Y136.822 E12.9380
G1 X29.068 Y135.413 E13.0411
G1 X29.053 Y135.403 E13.0417
G1 X28.638 Y135.056 E13.0615
G1 X28.626 Y135.043 E13.0622
G1 X26.883 Y132.971 E13.1612
G1 X26.878 Y132.964 E13.1616
G1 X26.724 Y132.745 E13.1714
G1 X26.719 Y132.738 E13.1717
G1 X26.423 Y132.229 E13.1932
G1 X26.419 Y132.222 E13.1935
G1 X26.312 Y131.998 E13.2026
G1 X26.309 Y131.990 E13.2029
G1 X25.345 Y129.479 E13.3013
G1 X25.343 Y129.474 E13.3015
G1 X25.292 Y129.316 E13.3076
G1 X25.290 Y129.311 E13.3078
G1 X25.056 Y128.428 E13.3412
G1 X25.053 Y128.415 E13.3417
G1 X25.001 Y128.007 E13.3567
G1 X25.001 Y127.994 E13.3572
G1 X25.055 Y118.626 E13.6999
G1 X24.952 Y91.376 E14.6969
G1 X24.952 Y91.369 E14.6972
G1 X24.957 Y82.917 E15.0064
G1 X24.957 Y82.892 E15.0073
G1 X25.138 Y71.884 E15.4100
G1 X25.139 Y71.872 E15.4105
G1 X25.189 Y71.506 E15.4240
G1 X25.191 Y71.494 E15.4244
G1 X25.785 Y69.213 E15.5107
G1 X25.788 Y69.204 E15.5110
G1 X25.894 Y68.916 E15.5223
G1 X25.898 Y68.907 E15.5226
G1 X26.357 Y67.963 E15.5610
G1 X26.362 Y67.954 E15.5614
G1 X26.533 Y67.679 E15.5732
G1 X26.539 Y67.671 E15.5736
G1 X27.856 Y65.976 E15.6521
G1 X27.862 Y65.969 E15.6525
G1 X28.066 Y65.753 E15.6634
G1 X28.073 Y65.746 E15.6637
G1 X29.393 Y64.593 E15.7278
G1 X29.395 Y64.591 E15.7279
G1 X29.456 Y64.541 E15.7308
G1 X29.458 Y64.539 E15.7309
G1 X30.332 Y63.851 E15.7716
G1 X30.347 Y63.841 E15.7723
G1 X30.820 Y63.587 E15.7919
G1 X30.835 Y63.580 E15.7925
G1 X31.065 Y63.503 E15.8014
G1 X31.431 Y63.253 E15.8176
G1 X31.442 Y63.246 E15.8181
G92 E0
G1 E-4.0000 F4800
; inner perimeter
G1 X33.560 Y67.007 F4800
G1 E0.0000 F4800
G92 E0
G1 X34.911 Y66.548 E0.0522 F1688
G1 X35.446 Y66.478 E0.0719
G1 X60.851 Y66.405 E1.0014
G1 X107.731 Y66.436 E2.7166
G1 X140.143 Y66.502 E3.9024
G1 X164.512 Y66.472 E4.7940
G1 X165.450 Y66.733 E4.8296
G1 X166.625 Y67.144 E4.8751
G1 X167.967 Y67.808 E4.9299
G1 X168.323 Y68.099 E4.9468
G1 X169.618 Y69.498 E5.0165
G1 X170.599 Y71.907 E5.1116
G1 X170.834 Y73.036 E5.1538
G1 X170.856 Y73.256 E5.1619
G1 X170.870 Y75.629 E5.2488
G1 X170.742 Y100.764 E6.1684
G1 X170.696 Y106.351 E6.3728
G1 X170.784 Y127.068 E7.1307
G1 X170.770 Y127.248 E7.1373
G1 X170.307 Y128.430 E7.1838
G1 X170.162 Y129.437 E7.2210
G1 X170.017 Y129.699 E7.2320
G1 X168.696 Y131.581 E7.3161
G1 X165.909 Y132.911 E7.4291
G1 X166.276 Y133.076 E7.4438
G1 X164.847 Y133.446 E7.4978
G1 X130.182 Y133.585 E8.7661
G1 X99.821 Y133.550 E9.8769
G1 X94.057 Y133.697 E10.0878
G1 X84.620 Y133.683 E10.4331
G1 X35.485 Y133.432 E12.2307
G1 X34.622 Y133.297 E12.2627
G1 X33.381 Y132.937 E12.3100
G1 X31.618 Y131.920 E12.3844
G1 X30.321 Y130.379 E12.4581
G1 X30.247 Y130.251 E12.4635
G1 X29.410 Y128.070 E12.5490
G1 X29.303 Y127.666 E12.5643
G1 X29.355 Y118.630 E12.8949
G1 X29.252 Y91.366 E13.8924
G1 X29.257 Y82.941 E14.2006
G1 X29.432 Y72.271 E14.5911
