; G-Code generated by Simplify3D(R) Version 3.1.1
; Oct 13, 2017 at 3:32:42 PM
; Settings Summary
;   processName,Process1
;   applyToModels,ESCbase
;   profileName,Anet new2 with Support (modified)
;   profileVersion,2017-10-09 11:21:31
;   baseProfile,Default
;   printMaterial,PLA
;   printQuality,Medium
;   printExtruders,
;   extruderName,Extruder 1
;   extruderToolheadNumber,0
;   extruderDiameter,0.4
;   extruderAutoWidth,0
;   extruderWidth,0.4
;   extrusionMultiplier,1
;   extruderUseRetract,1
;   extruderRetractionDistance,4
;   extruderExtraRestartDistance,0
;   extruderRetractionZLift,0
;   extruderRetractionSpeed,4800
;   extruderUseCoasting,0
;   extruderCoastingDistance,0.2
;   extruderUseWipe,1
;   extruderWipeDistance,5
;   primaryExtruder,0
;   layerHeight,0.2
;   topSolidLayers,3
;   bottomSolidLayers,3
;   perimeterOutlines,3
;   printPerimetersInsideOut,1
;   startPointOption,2
;   startPointOriginX,0
;   startPointOriginY,0
;   startPointOriginZ,300
;   sequentialIslands,0
;   spiralVaseMode,0
;   firstLayerHeightPercentage,90
;   firstLayerWidthPercentage,110
;   firstLayerUnderspeed,0.45
;   useRaft,0
;   raftExtruder,0
;   raftLayers,1
;   raftOffset,3
;   raftSeparationDistance,0.25
;   raftInfill,50
;   disableRaftBaseLayers,0
;   useSkirt,1
;   skirtExtruder,0
;   skirtLayers,1
;   skirtOutlines,2
;   skirtOffset,3
;   usePrimePillar,0
;   primePillarExtruder,999
;   primePillarWidth,12
;   primePillarLocation,7
;   primePillarSpeedMultiplier,1
;   useOozeShield,0
;   oozeShieldExtruder,999
;   oozeShieldOffset,2
;   oozeShieldOutlines,1
;   oozeShieldSidewallShape,1
;   oozeShieldSidewallAngle,30
;   oozeShieldSpeedMultiplier,1
;   infillExtruder,0
;   internalInfillPattern,Full Honeycomb
;   externalInfillPattern,Rectilinear
;   infillPercentage,30
;   outlineOverlapPercentage,15
;   infillExtrusionWidthPercentage,100
;   minInfillLength,4
;   infillLayerInterval,1
;   infillAngles,0,120,-120
;   overlapInfillAngles,0
;   generateSupport,1
;   supportExtruder,0
;   supportInfillPercentage,20
;   supportExtraInflation,0
;   denseSupportLayers,0
;   denseSupportInfillPercentage,20
;   supportLayerInterval,1
;   supportHorizontalPartOffset,0.3
;   supportUpperSeparationLayers,1
;   supportLowerSeparationLayers,1
;   supportType,0
;   supportGridSpacing,1.5
;   maxOverhangAngle,47
;   supportAngles,0
;   temperatureName,Extruder 1 Temperature,Heated Bed
;   temperatureNumber,0,0
;   temperatureSetpointCount,2,2
;   temperatureSetpointLayers,1,2,1,2
;   temperatureSetpointTemperatures,200,190,70,60
;   temperatureStabilizeAtStartup,1,1
;   temperatureHeatedBed,0,1
;   temperatureRelayBetweenLayers,0,0
;   temperatureRelayBetweenLoops,0,0
;   fanLayers,1,2
;   fanSpeeds,0,70
;   blipFanToFullPower,0
;   adjustSpeedForCooling,1
;   minSpeedLayerTime,15
;   minCoolingSpeedSlowdown,20
;   increaseFanForCooling,0
;   minFanLayerTime,45
;   maxCoolingFanSpeed,100
;   increaseFanForBridging,0
;   bridgingFanSpeed,100
;   use5D,1
;   relativeEdistances,0
;   allowEaxisZeroing,1
;   independentExtruderAxes,0
;   includeM10123,0
;   stickySupport,1
;   applyToolheadOffsets,0
;   gcodeXoffset,0
;   gcodeYoffset,0
;   gcodeZoffset,0
;   overrideMachineDefinition,1
;   machineTypeOverride,0
;   strokeXoverride,200
;   strokeYoverride,200
;   strokeZoverride,240
;   originOffsetXoverride,0
;   originOffsetYoverride,0
;   originOffsetZoverride,0
;   homeXdirOverride,-1
;   homeYdirOverride,-1
;   homeZdirOverride,-1
;   flipXoverride,1
;   flipYoverride,-1
;   flipZoverride,1
;   toolheadOffsets,0,0|0,0|0,0|0,0|0,0|0,0
;   overrideFirmwareConfiguration,1
;   firmwareTypeOverride,RepRap (Marlin/Repetier/Sprinter)
;   GPXconfigOverride,r2
;   baudRateOverride,115200
;   overridePrinterModels,0
;   printerModelsOverride
;   startingGcode,G28 ; home all axes,G1 X0 Y20 Z0.2 F3000 ; get ready to prime,G92 E0 ; reset extrusion distance,G1 X100 E20 F600 ; prime nozzle
;   layerChangeGcode,
;   retractionGcode,
;   toolChangeGcode,
;   endingGcode,M104 S0 ; turn off extruder,M140 S0 ; turn off bed,G1 E-1 F300	; retract the filament a bit,G28 X0 Y0; home,M84 ; disable motors,M107 ; shut off fan
;   exportFileFormat,gcode
;   celebration,0
;   celebrationSong,Random Song
;   postProcessing,
;   defaultSpeed,4200
;   outlineUnderspeed,0.5
;   solidInfillUnderspeed,0.8
;   supportUnderspeed,0.6
;   rapidXYspeed,4800
;   rapidZspeed,1002
;   minBridgingArea,50
;   bridgingExtraInflation,0
;   bridgingExtrusionMultiplier,1
;   bridgingSpeedMultiplier,1.25
;   filamentDiameter,1.75
;   filamentPricePerKg,120
;   filamentDensity,1.25
;   useMinPrintHeight,0
;   minPrintHeight,0
;   useMaxPrintHeight,0
;   maxPrintHeight,0
;   useDiaphragm,0
;   diaphragmLayerInterval,20
;   robustSlicing,1
;   mergeAllIntoSolid,0
;   onlyRetractWhenCrossingOutline,0
;   retractBetweenLayers,1
;   useRetractionMinTravel,0
;   retractionMinTravel,3
;   retractWhileWiping,1
;   onlyWipeOutlines,1
;   avoidCrossingOutline,1
;   maxMovementDetourFactor,3
;   toolChangeRetractionDistance,12
;   toolChangeExtraRestartDistance,-0.5
;   toolChangeRetractionSpeed,600
;   allowThinWallGapFill,0
;   thinWallAllowedOverlapPercentage,10
;   horizontalSizeCompensation,0
G90
M82
M106 S0
M140 S70
M190 S70
M104 S200 T0
M109 S200 T0
G28 ; home all axes
G1 X0 Y20 Z0.2 F3000 ; get ready to prime
G92 E0 ; reset extrusion distance
G1 X100 E20 F600 ; prime nozzle
G92 E0
G1 E-4.0000 F4800
G1 Z0.180 F1002
; layer 1, Z = 0.18
T0
; tool H0.200 W0.440
; skirt
G1 X37.311 Y61.427 F4800
G1 E0.0000 F1440
G92 E0
G1 X37.531 Y61.336 E0.0087 F1890
G1 X58.737 Y61.336 E0.7846
G1 X58.733 Y61.315 E0.7854
G1 X60.408 Y57.280 E0.9452
G1 X60.711 Y57.078 E0.9585
G1 X139.440 Y57.078 E3.8389
G1 X139.743 Y57.280 E3.8522
G1 X141.401 Y61.284 E4.0108
G1 X162.469 Y61.284 E4.7816
G1 X162.689 Y61.376 E4.7903
G1 X164.615 Y63.302 E4.8900
G1 X164.707 Y63.522 E4.8987
G1 X164.707 Y79.910 E5.4983
G1 X164.787 Y80.039 E5.5038
G1 X164.789 Y82.854 E5.6068
G1 X164.782 Y82.918 E5.6091
G1 X164.634 Y83.606 E5.6349
G1 X164.614 Y83.667 E5.6372
G1 X164.106 Y84.788 E5.6823
G1 X163.929 Y85.394 E5.7054
G1 X163.839 Y86.018 E5.7284
G1 X163.837 Y86.644 E5.7513
G1 X163.931 Y87.312 E5.7760
G1 X164.106 Y87.911 E5.7989
G1 X164.613 Y89.032 E5.8439
G1 X164.633 Y89.093 E5.8462
G1 X164.782 Y89.780 E5.8719
G1 X164.788 Y89.844 E5.8743
G1 X164.788 Y92.659 E5.9773
G1 X164.707 Y92.790 E5.9829
G1 X164.707 Y107.210 E6.5105
G1 X164.787 Y107.339 E6.5161
G1 X164.789 Y110.154 E6.6190
G1 X164.782 Y110.218 E6.6214
G1 X164.634 Y110.906 E6.6471
G1 X164.614 Y110.967 E6.6495
G1 X164.106 Y112.088 E6.6945
G1 X163.929 Y112.694 E6.7176
G1 X163.839 Y113.318 E6.7407
G1 X163.837 Y113.944 E6.7636
G1 X163.931 Y114.612 E6.7883
G1 X164.106 Y115.211 E6.8111
G1 X164.613 Y116.332 E6.8561
G1 X164.633 Y116.393 E6.8584
G1 X164.782 Y117.080 E6.8842
G1 X164.788 Y117.144 E6.8865
G1 X164.788 Y119.959 E6.9895
G1 X164.707 Y120.090 E6.9952
G1 X164.707 Y136.439 E7.5933
G1 X164.615 Y136.660 E7.6020
G1 X162.689 Y138.586 E7.7017
G1 X162.469 Y138.677 E7.7104
G1 X141.451 Y138.677 E8.4794
G1 X141.452 Y138.681 E8.4795
G1 X139.778 Y142.720 E8.6395
G1 X139.476 Y142.922 E8.6528
G1 X60.709 Y142.922 E11.5346
G1 X60.406 Y142.720 E11.5479
G1 X58.733 Y138.680 E11.7079
G1 X37.531 Y138.680 E12.4836
G1 X37.311 Y138.588 E12.4923
G1 X35.384 Y136.662 E12.5920
G1 X35.293 Y136.442 E12.6007
G1 X35.293 Y120.188 E13.1954
G1 X35.212 Y120.057 E13.2010
G1 X35.212 Y117.352 E13.3000
G1 X35.220 Y117.283 E13.3025
G1 X35.395 Y116.537 E13.3305
G1 X35.419 Y116.472 E13.3331
G1 X35.961 Y115.385 E13.3775
G1 X36.153 Y114.823 E13.3992
G1 X36.270 Y114.242 E13.4209
G1 X36.309 Y113.650 E13.4426
G1 X36.270 Y113.058 E13.4643
G1 X36.153 Y112.476 E13.4860
G1 X35.961 Y111.915 E13.5077
G1 X35.419 Y110.828 E13.5522
G1 X35.395 Y110.763 E13.5547
G1 X35.220 Y110.017 E13.5828
G1 X35.212 Y109.948 E13.5853
G1 X35.212 Y107.243 E13.6843
G1 X35.293 Y107.112 E13.6899
G1 X35.293 Y92.888 E14.2103
G1 X35.212 Y92.757 E14.2160
G1 X35.212 Y90.052 E14.3149
G1 X35.220 Y89.983 E14.3175
G1 X35.395 Y89.237 E14.3455
G1 X35.419 Y89.172 E14.3480
G1 X35.961 Y88.085 E14.3925
G1 X36.153 Y87.523 E14.4142
G1 X36.270 Y86.942 E14.4359
G1 X36.309 Y86.350 E14.4576
G1 X36.270 Y85.758 E14.4793
G1 X36.153 Y85.176 E14.5010
G1 X35.961 Y84.615 E14.5227
G1 X35.419 Y83.528 E14.5672
G1 X35.395 Y83.463 E14.5697
G1 X35.220 Y82.717 E14.5977
G1 X35.212 Y82.648 E14.6003
G1 X35.212 Y79.943 E14.6992
G1 X35.293 Y79.812 E14.7049
G1 X35.293 Y63.574 E15.2990
G1 X35.384 Y63.353 E15.3077
G1 X37.311 Y61.427 E15.4074
G92 E0
G1 E-4.0000 F4800
G1 X37.537 Y61.766 F4800
G1 E0.0000 F4800
G92 E0
G1 X37.611 Y61.736 E0.0029 F1890
G1 X59.432 Y61.736 E0.8013
G1 X59.173 Y61.475 E0.8147
G1 X59.149 Y61.356 E0.8192
G1 X60.731 Y57.545 E0.9701
G1 X60.832 Y57.478 E0.9746
G1 X139.319 Y57.478 E3.8461
G1 X139.420 Y57.545 E3.8505
G1 X141.000 Y61.361 E4.0017
G1 X140.977 Y61.480 E4.0061
G1 X140.772 Y61.684 E4.0167
G1 X162.389 Y61.684 E4.8075
G1 X162.463 Y61.715 E4.8105
G1 X164.276 Y63.528 E4.9043
G1 X164.307 Y63.602 E4.9072
G1 X164.307 Y80.047 E5.5089
G1 X164.327 Y80.057 E5.5097
G1 X164.387 Y80.154 E5.5138
G1 X164.389 Y82.833 E5.6119
G1 X164.386 Y82.854 E5.6127
G1 X164.247 Y83.501 E5.6369
G1 X164.240 Y83.521 E5.6376
G1 X163.730 Y84.649 E5.6829
G1 X163.538 Y85.309 E5.7081
G1 X163.439 Y85.989 E5.7332
G1 X163.437 Y86.671 E5.7582
G1 X163.539 Y87.397 E5.7850
G1 X163.730 Y88.050 E5.8099
G1 X164.240 Y89.178 E5.8552
G1 X164.247 Y89.198 E5.8559
G1 X164.386 Y89.844 E5.8801
G1 X164.388 Y89.865 E5.8809
G1 X164.388 Y92.545 E5.9789
G1 X164.328 Y92.642 E5.9831
G1 X164.307 Y92.652 E5.9840
G1 X164.307 Y107.347 E6.5216
G1 X164.327 Y107.357 E6.5224
G1 X164.387 Y107.454 E6.5266
G1 X164.389 Y110.133 E6.6246
G1 X164.386 Y110.154 E6.6254
G1 X164.247 Y110.801 E6.6496
G1 X164.240 Y110.821 E6.6504
G1 X163.730 Y111.949 E6.6957
G1 X163.538 Y112.609 E6.7208
G1 X163.439 Y113.289 E6.7460
G1 X163.437 Y113.971 E6.7709
G1 X163.539 Y114.697 E6.7977
G1 X163.730 Y115.351 E6.8227
G1 X164.240 Y116.478 E6.8679
G1 X164.247 Y116.498 E6.8687
G1 X164.386 Y117.144 E6.8929
G1 X164.388 Y117.165 E6.8936
G1 X164.388 Y119.845 E6.9917
G1 X164.328 Y119.942 E6.9959
G1 X164.307 Y119.952 E6.9967
G1 X164.307 Y136.360 E7.5970
G1 X164.276 Y136.433 E7.5999
G1 X162.463 Y138.247 E7.6938
G1 X162.389 Y138.277 E7.6967
G1 X140.769 Y138.277 E8.4877
G1 X141.012 Y138.520 E8.5002
G1 X141.036 Y138.639 E8.5047
G1 X139.455 Y142.455 E8.6558
G1 X139.354 Y142.522 E8.6602
G1 X60.830 Y142.522 E11.5331
G1 X60.729 Y142.455 E11.5376
G1 X59.149 Y138.639 E11.6887
G1 X59.173 Y138.520 E11.6931
G1 X59.413 Y138.280 E11.7055
G1 X37.611 Y138.280 E12.5032
G1 X37.537 Y138.249 E12.5061
G1 X35.724 Y136.436 E12.5999
G1 X35.693 Y136.362 E12.6029
G1 X35.693 Y120.050 E13.1996
G1 X35.672 Y120.040 E13.2005
G1 X35.612 Y119.943 E13.2047
G1 X35.612 Y117.375 E13.2986
G1 X35.614 Y117.352 E13.2995
G1 X35.779 Y116.651 E13.3258
G1 X35.787 Y116.629 E13.3267
G1 X36.331 Y115.539 E13.3712
G1 X36.540 Y114.928 E13.3949
G1 X36.668 Y114.295 E13.4185
G1 X36.710 Y113.650 E13.4422
G1 X36.668 Y113.005 E13.4658
G1 X36.540 Y112.371 E13.4894
G1 X36.331 Y111.760 E13.5131
G1 X35.787 Y110.670 E13.5576
G1 X35.779 Y110.648 E13.5585
G1 X35.614 Y109.948 E13.5848
G1 X35.612 Y109.925 E13.5857
G1 X35.612 Y107.357 E13.6796
G1 X35.672 Y107.260 E13.6838
G1 X35.693 Y107.250 E13.6847
G1 X35.693 Y92.750 E14.2151
G1 X35.672 Y92.740 E14.2160
G1 X35.612 Y92.643 E14.2202
G1 X35.612 Y90.075 E14.3141
G1 X35.614 Y90.052 E14.3150
G1 X35.779 Y89.351 E14.3413
G1 X35.787 Y89.329 E14.3422
G1 X36.331 Y88.239 E14.3867
G1 X36.540 Y87.628 E14.4104
G1 X36.668 Y86.995 E14.4340
G1 X36.710 Y86.350 E14.4576
G1 X36.668 Y85.705 E14.4813
G1 X36.540 Y85.071 E14.5049
G1 X36.331 Y84.460 E14.5286
G1 X35.787 Y83.370 E14.5731
G1 X35.779 Y83.348 E14.5740
G1 X35.614 Y82.648 E14.6003
G1 X35.612 Y82.625 E14.6012
G1 X35.612 Y80.057 E14.6951
G1 X35.672 Y79.960 E14.6993
G1 X35.693 Y79.950 E14.7001
G1 X35.693 Y63.653 E15.2964
G1 X35.724 Y63.580 E15.2993
G1 X37.537 Y61.766 E15.3931
G92 E0
G1 E-4.0000 F4800
; inner perimeter
G1 X39.993 Y66.036 F4800
G1 E0.0000 F4800
G92 E0
G1 X62.449 Y66.036 E0.8216 F1575
G1 X66.430 Y70.028 E1.0278
G1 X67.745 Y68.713 E1.0959
G1 X68.267 Y69.392 E1.1272
G1 X69.014 Y69.966 E1.1617
G1 X69.885 Y70.326 E1.1962
G1 X70.819 Y70.449 E1.2307
G1 X71.753 Y70.326 E1.2651
G1 X72.624 Y69.966 E1.2996
G1 X73.371 Y69.392 E1.3341
G1 X73.945 Y68.645 E1.3686
G1 X74.305 Y67.774 E1.4030
G1 X74.428 Y66.840 E1.4375
G1 X74.305 Y65.906 E1.4720
G1 X73.945 Y65.035 E1.5064
G1 X73.371 Y64.288 E1.5409
G1 X72.624 Y63.714 E1.5754
G1 X71.753 Y63.353 E1.6099
G1 X70.819 Y63.230 E1.6443
G1 X69.885 Y63.353 E1.6788
G1 X69.014 Y63.714 E1.7133
G1 X68.142 Y64.384 E1.7535
G1 X65.536 Y61.778 E1.8884
G1 X134.598 Y61.778 E4.4151
G1 X132.020 Y64.355 E4.5485
G1 X131.129 Y63.690 E4.5891
G1 X130.254 Y63.341 E4.6236
G1 X129.318 Y63.231 E4.6581
G1 X128.386 Y63.366 E4.6925
G1 X127.520 Y63.738 E4.7270
G1 X126.780 Y64.322 E4.7615
G1 X126.217 Y65.077 E4.7960
G1 X125.867 Y65.952 E4.8304
G1 X125.757 Y66.888 E4.8649
G1 X125.892 Y67.820 E4.8994
G1 X126.264 Y68.686 E4.9339
G1 X126.848 Y69.426 E4.9683
G1 X127.603 Y69.989 E5.0028
G1 X128.478 Y70.338 E5.0373
G1 X129.414 Y70.449 E5.0718
G1 X130.346 Y70.314 E5.1062
G1 X131.212 Y69.942 E5.1407
G1 X131.678 Y69.574 E5.1624
G1 X132.917 Y70.814 E5.2265
G1 X137.736 Y65.984 E5.4761
G1 X160.007 Y65.984 E6.2909
G1 X160.007 Y82.448 E6.8933
G1 X159.688 Y83.153 E6.9216
G1 X159.325 Y84.393 E6.9689
G1 X159.140 Y85.673 E7.0162
G1 X159.136 Y86.966 E7.0635
G1 X159.325 Y88.304 E7.1129
G1 X159.688 Y89.547 E7.1603
G1 X160.007 Y90.252 E7.1886
G1 X160.007 Y109.748 E7.9019
G1 X159.688 Y110.453 E7.9302
G1 X159.325 Y111.693 E7.9775
G1 X159.140 Y112.973 E8.0248
G1 X159.136 Y114.266 E8.0721
G1 X159.325 Y115.605 E8.1215
G1 X159.688 Y116.847 E8.1689
G1 X160.007 Y117.552 E8.1972
G1 X160.007 Y133.977 E8.7981
G1 X137.736 Y133.977 E9.6129
G1 X132.879 Y129.109 E9.8645
G1 X129.201 Y132.787 E10.0548
G1 X134.634 Y138.222 E10.3360
G1 X65.551 Y138.222 E12.8635
G1 X70.108 Y133.666 E13.0993
G1 X66.430 Y129.988 E13.2896
G1 X62.449 Y133.980 E13.4959
G1 X39.993 Y133.980 E14.3174
G1 X39.993 Y117.831 E14.9083
G1 X40.306 Y117.204 E14.9339
G1 X40.700 Y116.054 E14.9784
G1 X40.939 Y114.862 E15.0228
G1 X41.020 Y113.650 E15.0673
G1 X40.939 Y112.437 E15.1118
G1 X40.700 Y111.246 E15.1562
G1 X40.306 Y110.096 E15.2007
G1 X39.993 Y109.469 E15.2263
G1 X39.993 Y90.531 E15.9192
G1 X40.306 Y89.903 E15.9448
G1 X40.700 Y88.754 E15.9893
G1 X40.939 Y87.562 E16.0338
G1 X41.020 Y86.350 E16.0782
G1 X40.939 Y85.137 E16.1227
G1 X40.700 Y83.946 E16.1672
G1 X40.306 Y82.796 E16.2116
G1 X39.993 Y82.169 E16.2373
G1 X39.993 Y66.036 E16.8275
G92 E0
G1 E-4.0000 F4800
; inner perimeter
G1 X39.553 Y65.596 F4800
G1 E0.0000 F4800
G92 E0
G1 X62.632 Y65.596 E0.8444 F1260
G1 X66.431 Y69.405 E1.0412
G1 X67.883 Y67.953 E1.1163
G1 X68.077 Y68.423 E1.1349
G1 X68.580 Y69.078 E1.1652
G1 X69.236 Y69.582 E1.1954
G1 X70.000 Y69.898 E1.2256
G1 X70.819 Y70.006 E1.2559
G1 X71.638 Y69.898 E1.2861
G1 X72.402 Y69.582 E1.3163
G1 X73.057 Y69.078 E1.3466
G1 X73.561 Y68.423 E1.3768
G1 X73.877 Y67.659 E1.4071
G1 X73.985 Y66.840 E1.4373
G1 X73.877 Y66.021 E1.4675
G1 X73.561 Y65.257 E1.4978
G1 X73.057 Y64.601 E1.5280
G1 X72.402 Y64.098 E1.5582
G1 X71.638 Y63.782 E1.5885
G1 X70.819 Y63.674 E1.6187
G1 X70.000 Y63.782 E1.6489
G1 X69.236 Y64.098 E1.6792
G1 X68.581 Y64.601 E1.7094
G1 X68.214 Y65.079 E1.7314
G1 X64.474 Y61.338 E1.9250
G1 X135.660 Y61.338 E4.5294
G1 X131.950 Y65.048 E4.7214
G1 X131.575 Y64.572 E4.7435
G1 X130.913 Y64.078 E4.7738
G1 X130.145 Y63.772 E4.8040
G1 X129.324 Y63.675 E4.8342
G1 X128.506 Y63.793 E4.8645
G1 X127.747 Y64.120 E4.8947
G1 X127.098 Y64.631 E4.9250
G1 X126.604 Y65.293 E4.9552
G1 X126.298 Y66.061 E4.9854
G1 X126.201 Y66.882 E5.0157
G1 X126.319 Y67.700 E5.0459
G1 X126.646 Y68.459 E5.0761
G1 X127.157 Y69.108 E5.1064
G1 X127.820 Y69.602 E5.1366
G1 X128.587 Y69.908 E5.1668
G1 X129.408 Y70.005 E5.1971
G1 X130.226 Y69.887 E5.2273
G1 X130.985 Y69.560 E5.2575
G1 X131.712 Y68.987 E5.2914
