; G-Code generated by Simplify3D(R) Version 3.1.1
; Oct 13, 2017 at 3:32:28 PM
; Settings Summary
;   processName,Process1
;   applyToModels,MegaADKbase
;   profileName,Anet new2 with Support (modified)
;   profileVersion,2017-10-09 11:21:31
;   baseProfile,Default
;   printMaterial,PLA
;   printQuality,Medium
;   printExtruders,
;   extruderName,Extruder 1
;   extruderToolheadNumber,0
;   extruderDiameter,0.4
;   extruderAutoWidth,0
;   extruderWidth,0.4
;   extrusionMultiplier,1
;   extruderUseRetract,1
;   extruderRetractionDistance,4
;   extruderExtraRestartDistance,0
;   extruderRetractionZLift,0
;   extruderRetractionSpeed,4800
;   extruderUseCoasting,0
;   extruderCoastingDistance,0.2
;   extruderUseWipe,1
;   extruderWipeDistance,5
;   primaryExtruder,0
;   layerHeight,0.2
;   topSolidLayers,3
;   bottomSolidLayers,3
;   perimeterOutlines,3
;   printPerimetersInsideOut,1
;   startPointOption,2
;   startPointOriginX,0
;   startPointOriginY,0
;   startPointOriginZ,300
;   sequentialIslands,0
;   spiralVaseMode,0
;   firstLayerHeightPercentage,90
;   firstLayerWidthPercentage,110
;   firstLayerUnderspeed,0.45
;   useRaft,0
;   raftExtruder,0
;   raftLayers,1
;   raftOffset,3
;   raftSeparationDistance,0.25
;   raftInfill,50
;   disableRaftBaseLayers,0
;   useSkirt,1
;   skirtExtruder,0
;   skirtLayers,1
;   skirtOutlines,2
;   skirtOffset,3
;   usePrimePillar,0
;   primePillarExtruder,999
;   primePillarWidth,12
;   primePillarLocation,7
;   primePillarSpeedMultiplier,1
;   useOozeShield,0
;   oozeShieldExtruder,999
;   oozeShieldOffset,2
;   oozeShieldOutlines,1
;   oozeShieldSidewallShape,1
;   oozeShieldSidewallAngle,30
;   oozeShieldSpeedMultiplier,1
;   infillExtruder,0
;   internalInfillPattern,Full Honeycomb
;   externalInfillPattern,Rectilinear
;   infillPercentage,30
;   outlineOverlapPercentage,15
;   infillExtrusionWidthPercentage,100
;   minInfillLength,4
;   infillLayerInterval,1
;   infillAngles,0,120,-120
;   overlapInfillAngles,0
;   generateSupport,1
;   supportExtruder,0
;   supportInfillPercentage,20
;   supportExtraInflation,0
;   denseSupportLayers,0
;   denseSupportInfillPercentage,20
;   supportLayerInterval,1
;   supportHorizontalPartOffset,0.3
;   supportUpperSeparationLayers,1
;   supportLowerSeparationLayers,1
;   supportType,0
;   supportGridSpacing,1.5
;   maxOverhangAngle,47
;   supportAngles,0
;   temperatureName,Extruder 1 Temperature,Heated Bed
;   temperatureNumber,0,0
;   temperatureSetpointCount,2,2
;   temperatureSetpointLayers,1,2,1,2
;   temperatureSetpointTemperatures,200,190,70,60
;   temperatureStabilizeAtStartup,1,1
;   temperatureHeatedBed,0,1
;   temperatureRelayBetweenLayers,0,0
;   temperatureRelayBetweenLoops,0,0
;   fanLayers,1,2
;   fanSpeeds,0,70
;   blipFanToFullPower,0
;   adjustSpeedForCooling,1
;   minSpeedLayerTime,15
;   minCoolingSpeedSlowdown,20
;   increaseFanForCooling,0
;   minFanLayerTime,45
;   maxCoolingFanSpeed,100
;   increaseFanForBridging,0
;   bridgingFanSpeed,100
;   use5D,1
;   relativeEdistances,0
;   allowEaxisZeroing,1
;   independentExtruderAxes,0
;   includeM10123,0
;   stickySupport,1
;   applyToolheadOffsets,0
;   gcodeXoffset,0
;   gcodeYoffset,0
;   gcodeZoffset,0
;   overrideMachineDefinition,1
;   machineTypeOverride,0
;   strokeXoverride,200
;   strokeYoverride,200
;   strokeZoverride,240
;   originOffsetXoverride,0
;   originOffsetYoverride,0
;   originOffsetZoverride,0
;   homeXdirOverride,-1
;   homeYdirOverride,-1
;   homeZdirOverride,-1
;   flipXoverride,1
;   flipYoverride,-1
;   flipZoverride,1
;   toolheadOffsets,0,0|0,0|0,0|0,0|0,0|0,0
;   overrideFirmwareConfiguration,1
;   firmwareTypeOverride,RepRap (Marlin/Repetier/Sprinter)
;   GPXconfigOverride,r2
;   baudRateOverride,115200
;   overridePrinterModels,0
;   printerModelsOverride
;   startingGcode,G28 ; home all axes,G1 X0 Y20 Z0.2 F3000 ; get ready to prime,G92 E0 ; reset extrusion distance,G1 X100 E20 F600 ; prime nozzle
;   layerChangeGcode,
;   retractionGcode,
;   toolChangeGcode,
;   endingGcode,M104 S0 ; turn off extruder,M140 S0 ; turn off bed,G1 E-1 F300	; retract the filament a bit,G28 X0 Y0; home,M84 ; disable motors,M107 ; shut off fan
;   exportFileFormat,gcode
;   celebration,0
;   celebrationSong,Random Song
;   postProcessing,
;   defaultSpeed,4200
;   outlineUnderspeed,0.5
;   solidInfillUnderspeed,0.8
;   supportUnderspeed,0.6
;   rapidXYspeed,4800
;   rapidZspeed,1002
;   minBridgingArea,50
;   bridgingExtraInflation,0
;   bridgingExtrusionMultiplier,1
;   bridgingSpeedMultiplier,1.25
;   filamentDiameter,1.75
;   filamentPricePerKg,120
;   filamentDensity,1.25
;   useMinPrintHeight,0
;   minPrintHeight,0
;   useMaxPrintHeight,0
;   maxPrintHeight,0
;   useDiaphragm,0
;   diaphragmLayerInterval,20
;   robustSlicing,1
;   mergeAllIntoSolid,0
;   onlyRetractWhenCrossingOutline,0
;   retractBetweenLayers,1
;   useRetractionMinTravel,0
;   retractionMinTravel,3
;   retractWhileWiping,1
;   onlyWipeOutlines,1
;   avoidCrossingOutline,1
;   maxMovementDetourFactor,3
;   toolChangeRetractionDistance,12
;   toolChangeExtraRestartDistance,-0.5
;   toolChangeRetractionSpeed,600
;   allowThinWallGapFill,0
;   thinWallAllowedOverlapPercentage,10
;   horizontalSizeCompensation,0
G90
M82
M106 S0
M140 S70
M190 S70
M104 S200 T0
M109 S200 T0
G28 ; home all axes
G1 X0 Y20 Z0.2 F3000 ; get ready to prime
G92 E0 ; reset extrusion distance
G1 X100 E20 F600 ; prime nozzle
G92 E0
G1 E-4.0000 F4800
G1 Z0.180 F1002
; layer 1, Z = 0.18
T0
; tool H0.200 W0.440
; skirt
G1 X41.453 Y62.242 F4800
G1 E0.0000 F1440
G92 E0
G1 X62.242 Y41.453 E1.0756 F1890
G1 X62.462 Y41.362 E1.0844
G1 X65.186 Y41.362 E1.1840
G1 X65.407 Y41.453 E1.1928
G1 X68.839 Y44.885 E1.3703
G1 X69.836 Y43.888 E1.4219
G1 X70.057 Y43.796 E1.4307
G1 X130.781 Y43.796 E3.6523
G1 X131.001 Y43.888 E3.6611
G1 X131.580 Y44.466 E3.6910
G1 X134.593 Y41.453 E3.8469
G1 X134.814 Y41.362 E3.8556
G1 X137.538 Y41.362 E3.9553
G1 X137.758 Y41.453 E3.9640
G1 X158.547 Y62.242 E5.0397
G1 X158.639 Y62.462 E5.0484
G1 X158.639 Y65.186 E5.1481
G1 X158.547 Y65.407 E5.1568
G1 X152.801 Y71.154 E5.4541
G1 X167.331 Y71.154 E5.9857
G1 X167.551 Y71.245 E5.9945
G1 X169.477 Y73.171 E6.0941
G1 X169.569 Y73.392 E6.1029
G1 X169.569 Y79.302 E6.3191
G1 X169.513 Y79.478 E6.3258
G1 X168.326 Y81.177 E6.4017
G1 X168.180 Y81.289 E6.4084
G1 X166.264 Y81.992 E6.4831
G1 X165.625 Y82.344 E6.5097
G1 X165.048 Y82.789 E6.5364
G1 X164.544 Y83.316 E6.5631
G1 X164.126 Y83.914 E6.5898
G1 X163.804 Y84.569 E6.6165
G1 X163.585 Y85.264 E6.6432
G1 X163.474 Y85.985 E6.6699
G1 X163.474 Y86.715 E6.6966
G1 X163.585 Y87.436 E6.7232
G1 X163.804 Y88.131 E6.7499
G1 X164.126 Y88.786 E6.7766
G1 X164.544 Y89.384 E6.8033
G1 X165.048 Y89.911 E6.8300
G1 X165.625 Y90.356 E6.8567
G1 X166.264 Y90.708 E6.8834
G1 X168.180 Y91.411 E6.9580
G1 X168.326 Y91.523 E6.9648
G1 X169.513 Y93.222 E7.0406
G1 X169.569 Y93.398 E7.0473
G1 X169.569 Y106.602 E7.5304
G1 X169.513 Y106.778 E7.5372
G1 X168.326 Y108.477 E7.6130
G1 X168.180 Y108.589 E7.6197
G1 X166.264 Y109.291 E7.6944
G1 X165.625 Y109.644 E7.7211
G1 X165.048 Y110.089 E7.7478
G1 X164.544 Y110.616 E7.7744
G1 X164.126 Y111.214 E7.8011
G1 X163.804 Y111.869 E7.8278
G1 X163.585 Y112.564 E7.8545
G1 X163.474 Y113.285 E7.8812
G1 X163.474 Y114.015 E7.9079
G1 X163.585 Y114.736 E7.9346
G1 X163.804 Y115.431 E7.9612
G1 X164.126 Y116.086 E7.9879
G1 X164.544 Y116.684 E8.0146
G1 X165.048 Y117.211 E8.0413
G1 X165.625 Y117.656 E8.0680
G1 X166.264 Y118.008 E8.0947
G1 X168.180 Y118.711 E8.1693
G1 X168.326 Y118.823 E8.1761
G1 X169.513 Y120.522 E8.2519
G1 X169.569 Y120.698 E8.2586
G1 X169.569 Y126.608 E8.4749
G1 X169.477 Y126.829 E8.4836
G1 X167.551 Y128.755 E8.5833
G1 X167.331 Y128.846 E8.5920
G1 X152.801 Y128.846 E9.1236
G1 X158.547 Y134.593 E9.4209
G1 X158.639 Y134.814 E9.4297
G1 X158.639 Y137.538 E9.5293
G1 X158.547 Y137.758 E9.5381
G1 X137.758 Y158.547 E10.6137
G1 X137.538 Y158.638 E10.6224
G1 X134.814 Y158.638 E10.7221
G1 X134.593 Y158.547 E10.7308
G1 X132.376 Y156.330 E10.8455
G1 X131.001 Y157.705 E10.9167
G1 X130.781 Y157.796 E10.9254
G1 X70.057 Y157.796 E13.1471
G1 X69.836 Y157.705 E13.1558
G1 X68.043 Y155.911 E13.2486
G1 X65.407 Y158.547 E13.3850
G1 X65.186 Y158.638 E13.3937
G1 X62.462 Y158.638 E13.4934
G1 X62.242 Y158.547 E13.5021
G1 X41.453 Y137.758 E14.5777
G1 X41.361 Y137.538 E14.5865
G1 X41.361 Y134.814 E14.6861
G1 X41.453 Y134.593 E14.6949
G1 X47.199 Y128.846 E14.9922
G1 X32.669 Y128.846 E15.5238
G1 X32.449 Y128.755 E15.5325
G1 X30.523 Y126.829 E15.6322
G1 X30.431 Y126.608 E15.6409
G1 X30.431 Y120.698 E15.8572
G1 X30.487 Y120.522 E15.8639
G1 X31.674 Y118.823 E15.9397
G1 X31.820 Y118.711 E15.9465
G1 X33.736 Y118.008 E16.0211
G1 X34.375 Y117.656 E16.0478
G1 X34.952 Y117.211 E16.0745
G1 X35.456 Y116.684 E16.1012
G1 X35.874 Y116.086 E16.1279
G1 X36.196 Y115.431 E16.1546
G1 X36.415 Y114.736 E16.1812
G1 X36.526 Y114.015 E16.2079
G1 X36.526 Y113.285 E16.2346
G1 X36.415 Y112.564 E16.2613
G1 X36.196 Y111.869 E16.2880
G1 X35.874 Y111.214 E16.3147
G1 X35.456 Y110.616 E16.3414
G1 X34.953 Y110.089 E16.3681
G1 X34.375 Y109.644 E16.3947
G1 X33.736 Y109.291 E16.4214
G1 X31.820 Y108.589 E16.4961
G1 X31.674 Y108.477 E16.5028
G1 X30.487 Y106.778 E16.5787
G1 X30.431 Y106.602 E16.5854
G1 X30.431 Y93.398 E17.0685
G1 X30.487 Y93.222 E17.0752
G1 X31.674 Y91.523 E17.1510
G1 X31.820 Y91.411 E17.1578
G1 X33.736 Y90.709 E17.2324
G1 X34.375 Y90.356 E17.2591
G1 X34.953 Y89.911 E17.2858
G1 X35.456 Y89.384 E17.3125
G1 X35.874 Y88.786 E17.3392
G1 X36.196 Y88.131 E17.3659
G1 X36.415 Y87.436 E17.3926
G1 X36.526 Y86.715 E17.4193
G1 X36.526 Y85.985 E17.4459
G1 X36.415 Y85.264 E17.4726
G1 X36.196 Y84.569 E17.4993
G1 X35.874 Y83.914 E17.5260
G1 X35.456 Y83.316 E17.5527
G1 X34.952 Y82.789 E17.5794
G1 X34.375 Y82.344 E17.6061
G1 X33.736 Y81.992 E17.6327
G1 X31.820 Y81.289 E17.7074
G1 X31.674 Y81.177 E17.7141
G1 X30.487 Y79.478 E17.7900
G1 X30.431 Y79.302 E17.7967
G1 X30.431 Y73.392 E18.0130
G1 X30.523 Y73.171 E18.0217
G1 X32.449 Y71.245 E18.1213
G1 X32.669 Y71.154 E18.1301
G1 X47.199 Y71.154 E18.6617
G1 X41.453 Y65.407 E18.9590
G1 X41.361 Y65.186 E18.9678
G1 X41.361 Y62.462 E19.0674
G1 X41.453 Y62.242 E19.0761
G92 E0
G1 E-4.0000 F4800
G1 X41.792 Y62.468 F4800
G1 E0.0000 F4800
G92 E0
G1 X62.469 Y41.792 E1.0698 F1890
G1 X62.542 Y41.762 E1.0727
G1 X65.107 Y41.762 E1.1666
G1 X65.180 Y41.792 E1.1695
G1 X68.839 Y45.451 E1.3588
G1 X70.063 Y44.227 E1.4221
G1 X70.136 Y44.196 E1.4250
G1 X130.701 Y44.196 E3.6408
G1 X130.775 Y44.227 E3.6437
G1 X131.580 Y45.032 E3.6854
G1 X134.820 Y41.792 E3.8530
G1 X134.893 Y41.762 E3.8560
G1 X137.458 Y41.762 E3.9498
G1 X137.531 Y41.792 E3.9527
G1 X158.208 Y62.468 E5.0225
G1 X158.239 Y62.542 E5.0254
G1 X158.239 Y65.107 E5.1193
G1 X158.208 Y65.180 E5.1222
G1 X151.835 Y71.554 E5.4519
G1 X167.251 Y71.554 E6.0160
G1 X167.324 Y71.584 E6.0189
G1 X169.138 Y73.398 E6.1127
G1 X169.169 Y73.471 E6.1156
G1 X169.169 Y79.241 E6.3267
G1 X169.150 Y79.299 E6.3289
G1 X168.034 Y80.897 E6.4003
G1 X167.985 Y80.935 E6.4025
G1 X166.098 Y81.626 E6.4760
G1 X165.406 Y82.008 E6.5050
G1 X164.779 Y82.490 E6.5339
G1 X164.233 Y83.062 E6.5628
G1 X163.781 Y83.710 E6.5917
G1 X163.432 Y84.419 E6.6207
G1 X163.194 Y85.173 E6.6496
G1 X163.074 Y85.955 E6.6785
G1 X163.074 Y86.745 E6.7074
G1 X163.194 Y87.527 E6.7363
G1 X163.432 Y88.281 E6.7653
G1 X163.781 Y88.990 E6.7942
G1 X164.233 Y89.638 E6.8231
G1 X164.779 Y90.210 E6.8520
G1 X165.406 Y90.692 E6.8809
G1 X166.098 Y91.074 E6.9099
G1 X167.985 Y91.765 E6.9834
G1 X168.034 Y91.803 E6.9856
G1 X169.150 Y93.401 E7.0570
G1 X169.169 Y93.459 E7.0592
G1 X169.169 Y106.541 E7.5378
G1 X169.150 Y106.599 E7.5400
G1 X168.034 Y108.197 E7.6114
G1 X167.985 Y108.235 E7.6136
G1 X166.098 Y108.926 E7.6872
G1 X165.406 Y109.308 E7.7161
G1 X164.779 Y109.790 E7.7450
G1 X164.233 Y110.362 E7.7739
G1 X163.781 Y111.010 E7.8028
G1 X163.432 Y111.719 E7.8318
G1 X163.194 Y112.473 E7.8607
G1 X163.074 Y113.255 E7.8896
G1 X163.074 Y114.045 E7.9185
G1 X163.194 Y114.827 E7.9474
G1 X163.432 Y115.581 E7.9764
G1 X163.781 Y116.290 E8.0053
G1 X164.233 Y116.938 E8.0342
G1 X164.779 Y117.510 E8.0631
G1 X165.406 Y117.992 E8.0920
G1 X166.098 Y118.374 E8.1210
G1 X167.985 Y119.065 E8.1945
G1 X168.034 Y119.103 E8.1967
G1 X169.150 Y120.701 E8.2681
G1 X169.169 Y120.759 E8.2703
G1 X169.169 Y126.529 E8.4814
G1 X169.138 Y126.602 E8.4843
G1 X167.324 Y128.416 E8.5781
G1 X167.251 Y128.446 E8.5811
G1 X151.835 Y128.446 E9.1451
G1 X158.208 Y134.820 E9.4748
G1 X158.239 Y134.893 E9.4777
G1 X158.239 Y137.458 E9.5716
G1 X158.208 Y137.532 E9.5745
G1 X137.531 Y158.208 E10.6443
G1 X137.458 Y158.238 E10.6472
G1 X134.893 Y158.238 E10.7411
G1 X134.820 Y158.208 E10.7440
G1 X132.376 Y155.764 E10.8704
G1 X130.775 Y157.366 E10.9533
G1 X130.701 Y157.396 E10.9562
G1 X70.136 Y157.396 E13.1720
G1 X70.063 Y157.366 E13.1749
G1 X68.249 Y155.552 E13.2688
G1 X68.219 Y155.479 E13.2717
G1 X68.219 Y155.169 E13.2830
G1 X65.180 Y158.208 E13.4402
G1 X65.107 Y158.238 E13.4431
G1 X62.542 Y158.238 E13.5369
G1 X62.469 Y158.208 E13.5398
G1 X41.792 Y137.532 E14.6097
G1 X41.761 Y137.458 E14.6126
G1 X41.761 Y134.893 E14.7064
G1 X41.792 Y134.820 E14.7093
G1 X48.165 Y128.446 E15.0391
G1 X32.749 Y128.446 E15.6031
G1 X32.676 Y128.416 E15.6060
G1 X30.862 Y126.602 E15.6998
G1 X30.831 Y126.529 E15.7028
G1 X30.831 Y120.759 E15.9138
G1 X30.850 Y120.701 E15.9161
G1 X31.966 Y119.103 E15.9874
G1 X32.015 Y119.065 E15.9897
G1 X33.902 Y118.374 E16.0632
G1 X34.594 Y117.992 E16.0921
G1 X35.221 Y117.510 E16.1210
G1 X35.767 Y116.938 E16.1499
G1 X36.219 Y116.290 E16.1789
G1 X36.568 Y115.581 E16.2078
G1 X36.806 Y114.827 E16.2367
G1 X36.926 Y114.045 E16.2656
G1 X36.926 Y113.255 E16.2946
G1 X36.806 Y112.473 E16.3235
G1 X36.568 Y111.719 E16.3524
G1 X36.219 Y111.010 E16.3813
G1 X35.767 Y110.362 E16.4102
G1 X35.221 Y109.790 E16.4392
G1 X34.594 Y109.308 E16.4681
G1 X33.902 Y108.926 E16.4970
G1 X32.015 Y108.235 E16.5705
G1 X31.966 Y108.197 E16.5728
G1 X30.850 Y106.599 E16.6441
G1 X30.831 Y106.541 E16.6464
G1 X30.831 Y93.459 E17.1249
G1 X30.850 Y93.401 E17.1272
G1 X31.966 Y91.803 E17.1985
G1 X32.015 Y91.765 E17.2008
G1 X33.902 Y91.074 E17.2743
G1 X34.594 Y90.692 E17.3032
G1 X35.221 Y90.210 E17.3321
G1 X35.767 Y89.638 E17.3611
G1 X36.219 Y88.990 E17.3900
G1 X36.568 Y88.281 E17.4189
G1 X36.806 Y87.527 E17.4478
G1 X36.926 Y86.745 E17.4767
G1 X36.926 Y85.955 E17.5057
G1 X36.806 Y85.173 E17.5346
G1 X36.568 Y84.419 E17.5635
G1 X36.219 Y83.710 E17.5924
G1 X35.767 Y83.062 E17.6214
G1 X35.221 Y82.490 E17.6503
G1 X34.594 Y82.008 E17.6792
G1 X33.902 Y81.626 E17.7081
G1 X32.015 Y80.935 E17.7816
G1 X31.966 Y80.897 E17.7839
G1 X30.850 Y79.299 E17.8552
G1 X30.831 Y79.241 E17.8575
G1 X30.831 Y73.471 E18.0685
G1 X30.862 Y73.398 E18.0715
G1 X32.676 Y71.584 E18.1653
G1 X32.749 Y71.554 E18.1682
G1 X48.165 Y71.554 E18.7322
G1 X41.792 Y65.180 E19.0620
G1 X41.761 Y65.107 E19.0649
G1 X41.761 Y62.542 E19.1587
G1 X41.792 Y62.468 E19.1616
G92 E0
G1 E-4.0000 F4800
; inner perimeter
G1 X46.517 Y63.824 F4800
G1 E0.0000 F4800
G92 E0
G1 X63.824 Y46.517 E0.8955 F1575
G1 X72.519 Y55.212 E1.3453
G1 X72.519 Y48.496 E1.5910
G1 X128.319 Y48.496 E3.6325
G1 X128.319 Y54.374 E3.8476
G1 X136.176 Y46.517 E4.2541
G1 X153.483 Y63.824 E5.1496
G1 X141.454 Y75.854 E5.7720
G1 X164.869 Y75.854 E6.6287
G1 X164.869 Y77.497 E6.6888
G1 X164.310 Y77.702 E6.7106
G1 X163.042 Y78.401 E6.7635
G1 X161.896 Y79.284 E6.8165
G1 X160.896 Y80.330 E6.8694
G1 X160.068 Y81.517 E6.9224
G1 X159.429 Y82.815 E6.9753
G1 X158.994 Y84.196 E7.0283
G1 X158.774 Y85.626 E7.0812
G1 X158.774 Y87.074 E7.1342
G1 X158.994 Y88.504 E7.1871
G1 X159.429 Y89.885 E7.2401
G1 X160.068 Y91.183 E7.2930
G1 X160.896 Y92.370 E7.3460
G1 X161.896 Y93.416 E7.3989
G1 X163.042 Y94.299 E7.4519
G1 X164.310 Y94.998 E7.5048
G1 X164.869 Y95.203 E7.5266
G1 X164.869 Y104.797 E7.8776
G1 X164.310 Y105.002 E7.8994
G1 X163.042 Y105.701 E7.9523
G1 X161.896 Y106.584 E8.0053
G1 X160.896 Y107.630 E8.0582
G1 X160.068 Y108.817 E8.1112
G1 X159.429 Y110.115 E8.1641
G1 X158.994 Y111.496 E8.2171
G1 X158.774 Y112.926 E8.2700
G1 X158.774 Y114.374 E8.3230
G1 X158.994 Y115.804 E8.3759
