; G-Code generated by Simplify3D(R) Version 3.1.1
; Oct 23, 2017 at 8:46:41 AM
; Settings Summary
;   processName,Process1
;   applyToModels,Nexus5Xcase
;   profileName,Anet new2 with Support (modified)
;   profileVersion,2017-10-09 11:21:31
;   baseProfile,Default
;   printMaterial,PLA
;   printQuality,Medium
;   printExtruders,
;   extruderName,Extruder 1
;   extruderToolheadNumber,0
;   extruderDiameter,0.4
;   extruderAutoWidth,0
;   extruderWidth,0.4
;   extrusionMultiplier,1
;   extruderUseRetract,1
;   extruderRetractionDistance,4
;   extruderExtraRestartDistance,0
;   extruderRetractionZLift,0
;   extruderRetractionSpeed,4800
;   extruderUseCoasting,0
;   extruderCoastingDistance,0.2
;   extruderUseWipe,1
;   extruderWipeDistance,5
;   primaryExtruder,0
;   layerHeight,0.2
;   topSolidLayers,3
;   bottomSolidLayers,3
;   perimeterOutlines,3
;   printPerimetersInsideOut,1
;   startPointOption,2
;   startPointOriginX,0
;   startPointOriginY,0
;   startPointOriginZ,300
;   sequentialIslands,0
;   spiralVaseMode,0
;   firstLayerHeightPercentage,90
;   firstLayerWidthPercentage,110
;   firstLayerUnderspeed,0.45
;   useRaft,0
;   raftExtruder,0
;   raftLayers,1
;   raftOffset,3
;   raftSeparationDistance,0.25
;   raftInfill,50
;   disableRaftBaseLayers,0
;   useSkirt,1
;   skirtExtruder,0
;   skirtLayers,1
;   skirtOutlines,2
;   skirtOffset,3
;   usePrimePillar,0
;   primePillarExtruder,999
;   primePillarWidth,12
;   primePillarLocation,7
;   primePillarSpeedMultiplier,1
;   useOozeShield,0
;   oozeShieldExtruder,999
;   oozeShieldOffset,2
;   oozeShieldOutlines,1
;   oozeShieldSidewallShape,1
;   oozeShieldSidewallAngle,30
;   oozeShieldSpeedMultiplier,1
;   infillExtruder,0
;   internalInfillPattern,Full Honeycomb
;   externalInfillPattern,Rectilinear
;   infillPercentage,30
;   outlineOverlapPercentage,15
;   infillExtrusionWidthPercentage,100
;   minInfillLength,4
;   infillLayerInterval,1
;   infillAngles,0,120,-120
;   overlapInfillAngles,0
;   generateSupport,1
;   supportExtruder,0
;   supportInfillPercentage,20
;   supportExtraInflation,0
;   denseSupportLayers,0
;   denseSupportInfillPercentage,20
;   supportLayerInterval,1
;   supportHorizontalPartOffset,0.3
;   supportUpperSeparationLayers,1
;   supportLowerSeparationLayers,1
;   supportType,0
;   supportGridSpacing,1.5
;   maxOverhangAngle,47
;   supportAngles,0
;   temperatureName,Extruder 1 Temperature,Heated Bed
;   temperatureNumber,0,0
;   temperatureSetpointCount,2,2
;   temperatureSetpointLayers,1,2,1,2
;   temperatureSetpointTemperatures,200,190,70,60
;   temperatureStabilizeAtStartup,1,1
;   temperatureHeatedBed,0,1
;   temperatureRelayBetweenLayers,0,0
;   temperatureRelayBetweenLoops,0,0
;   fanLayers,1,2
;   fanSpeeds,0,70
;   blipFanToFullPower,0
;   adjustSpeedForCooling,1
;   minSpeedLayerTime,15
;   minCoolingSpeedSlowdown,20
;   increaseFanForCooling,0
;   minFanLayerTime,45
;   maxCoolingFanSpeed,100
;   increaseFanForBridging,0
;   bridgingFanSpeed,100
;   use5D,1
;   relativeEdistances,0
;   allowEaxisZeroing,1
;   independentExtruderAxes,0
;   includeM10123,0
;   stickySupport,1
;   applyToolheadOffsets,0
;   gcodeXoffset,0
;   gcodeYoffset,0
;   gcodeZoffset,0
;   overrideMachineDefinition,1
;   machineTypeOverride,0
;   strokeXoverride,200
;   strokeYoverride,200
;   strokeZoverride,240
;   originOffsetXoverride,0
;   originOffsetYoverride,0
;   originOffsetZoverride,0
;   homeXdirOverride,-1
;   homeYdirOverride,-1
;   homeZdirOverride,-1
;   flipXoverride,1
;   flipYoverride,-1
;   flipZoverride,1
;   toolheadOffsets,0,0|0,0|0,0|0,0|0,0|0,0
;   overrideFirmwareConfiguration,1
;   firmwareTypeOverride,RepRap (Marlin/Repetier/Sprinter)
;   GPXconfigOverride,r2
;   baudRateOverride,115200
;   overridePrinterModels,0
;   printerModelsOverride
;   startingGcode,G28 ; home all axes,G1 X0 Y20 Z0.2 F3000 ; get ready to prime,G92 E0 ; reset extrusion distance,G1 X100 E20 F600 ; prime nozzle
;   layerChangeGcode,
;   retractionGcode,
;   toolChangeGcode,
;   endingGcode,M104 S0 ; turn off extruder,M140 S0 ; turn off bed,G1 E-1 F300	; retract the filament a bit,G28 X0 Y0; home,M84 ; disable motors,M107 ; shut off fan
;   exportFileFormat,gcode
;   celebration,0
;   celebrationSong,Random Song
;   postProcessing,
;   defaultSpeed,3600
;   outlineUnderspeed,0.5
;   solidInfillUnderspeed,0.8
;   supportUnderspeed,0.6
;   rapidXYspeed,4800
;   rapidZspeed,1002
;   minBridgingArea,50
;   bridgingExtraInflation,0
;   bridgingExtrusionMultiplier,1
;   bridgingSpeedMultiplier,1.25
;   filamentDiameter,1.75
;   filamentPricePerKg,120
;   filamentDensity,1.25
;   useMinPrintHeight,0
;   minPrintHeight,0
;   useMaxPrintHeight,0
;   maxPrintHeight,0
;   useDiaphragm,0
;   diaphragmLayerInterval,20
;   robustSlicing,1
;   mergeAllIntoSolid,0
;   onlyRetractWhenCrossingOutline,0
;   retractBetweenLayers,1
;   useRetractionMinTravel,0
;   retractionMinTravel,3
;   retractWhileWiping,1
;   onlyWipeOutlines,1
;   avoidCrossingOutline,1
;   maxMovementDetourFactor,3
;   toolChangeRetractionDistance,12
;   toolChangeExtraRestartDistance,-0.5
;   toolChangeRetractionSpeed,600
;   allowThinWallGapFill,0
;   thinWallAllowedOverlapPercentage,10
;   horizontalSizeCompensation,0
G90
M82
M106 S0
M140 S70
M190 S70
M104 S200 T0
M109 S200 T0
G28 ; home all axes
G1 X0 Y20 Z0.2 F3000 ; get ready to prime
G92 E0 ; reset extrusion distance
G1 X100 E20 F600 ; prime nozzle
G92 E0
G1 E-4.0000 F4800
G1 Z0.180 F1002
; layer 1, Z = 0.18
T0
; tool H0.200 W0.440
; skirt
G1 X30.252 Y62.091 F4800
G1 E0.0000 F1440
G92 E0
G1 X30.532 Y61.955 E0.0114 F1620
G1 X30.558 Y61.943 E0.0124
G1 X32.003 Y61.405 E0.0688
G1 X32.033 Y61.395 E0.0700
G1 X32.375 Y61.308 E0.0829
G1 X32.407 Y61.302 E0.0841
G1 X35.088 Y60.915 E0.1832
G1 X35.109 Y60.913 E0.1840
G1 X35.344 Y60.896 E0.1926
G1 X35.366 Y60.895 E0.1934
G1 X164.671 Y60.895 E4.9242
G1 X164.699 Y60.897 E4.9252
G1 X165.006 Y60.926 E4.9365
G1 X165.034 Y60.930 E4.9375
G1 X168.443 Y61.575 E5.0645
G1 X168.493 Y61.589 E5.0664
G1 X169.020 Y61.786 E5.0870
G1 X169.066 Y61.808 E5.0888
G1 X171.798 Y63.400 E5.2045
G1 X173.357 Y63.400 E5.2615
G1 X173.578 Y63.491 E5.2703
G1 X175.504 Y65.417 E5.3699
G1 X175.595 Y65.638 E5.3787
G1 X175.595 Y68.269 E5.4749
G1 X175.737 Y68.561 E5.4868
G1 X175.748 Y68.587 E5.4878
G1 X175.857 Y68.879 E5.4992
G1 X175.865 Y68.906 E5.5003
G1 X176.425 Y70.984 E5.5790
G1 X176.432 Y71.012 E5.5801
G1 X176.484 Y71.325 E5.5917
G1 X176.488 Y71.353 E5.5927
G1 X176.590 Y72.776 E5.6449
G1 X176.590 Y72.787 E5.6453
G1 X176.594 Y72.904 E5.6496
G1 X176.595 Y72.915 E5.6500
G1 X176.595 Y127.142 E7.6340
G1 X176.594 Y127.164 E7.6347
G1 X176.577 Y127.396 E7.6433
G1 X176.575 Y127.417 E7.6440
G1 X176.203 Y130.038 E7.7409
G1 X176.197 Y130.069 E7.7420
G1 X176.112 Y130.405 E7.7547
G1 X176.103 Y130.435 E7.7559
G1 X175.552 Y131.939 E7.8145
G1 X175.541 Y131.967 E7.8156
G1 X175.399 Y132.260 E7.8275
G1 X175.385 Y132.286 E7.8286
G1 X174.237 Y134.163 E7.9091
G1 X174.217 Y134.193 E7.9104
G1 X173.971 Y134.504 E7.9249
G1 X173.947 Y134.530 E7.9262
G1 X171.961 Y136.504 E8.0286
G1 X171.934 Y136.527 E8.0299
G1 X171.627 Y136.768 E8.0442
G1 X171.597 Y136.788 E8.0455
G1 X169.672 Y137.957 E8.1279
G1 X169.628 Y137.979 E8.1297
G1 X169.119 Y138.183 E8.1498
G1 X169.071 Y138.197 E8.1516
G1 X165.109 Y139.060 E8.3000
G1 X165.077 Y139.065 E8.3012
G1 X164.725 Y139.103 E8.3141
G1 X164.693 Y139.105 E8.3153
G1 X35.384 Y139.105 E13.0462
G1 X35.366 Y139.104 E13.0468
G1 X35.167 Y139.092 E13.0541
G1 X35.149 Y139.090 E13.0548
G1 X32.948 Y138.823 E13.1359
G1 X32.899 Y138.813 E13.1378
G1 X32.364 Y138.654 E13.1582
G1 X32.317 Y138.635 E13.1600
G1 X28.145 Y136.578 E13.3302
G1 X28.104 Y136.553 E13.3320
G1 X27.670 Y136.245 E13.3514
G1 X27.634 Y136.214 E13.3532
G1 X26.455 Y135.048 E13.4139
G1 X26.439 Y135.031 E13.4147
G1 X26.272 Y134.839 E13.4240
G1 X26.258 Y134.821 E13.4249
G1 X25.339 Y133.579 E13.4814
G1 X25.324 Y133.556 E13.4824
G1 X25.166 Y133.295 E13.4936
G1 X25.153 Y133.270 E13.4946
G1 X24.263 Y131.439 E13.5690
G1 X24.252 Y131.413 E13.5701
G1 X24.143 Y131.121 E13.5815
G1 X24.134 Y131.094 E13.5825
G1 X23.575 Y129.016 E13.6613
G1 X23.568 Y128.988 E13.6623
G1 X23.516 Y128.675 E13.6739
G1 X23.512 Y128.647 E13.6750
G1 X23.410 Y127.224 E13.7271
G1 X23.410 Y127.213 E13.7275
G1 X23.406 Y127.096 E13.7319
G1 X23.405 Y127.085 E13.7322
G1 X23.405 Y72.858 E15.7162
G1 X23.406 Y72.836 E15.7170
G1 X23.423 Y72.604 E15.7255
G1 X23.425 Y72.583 E15.7263
G1 X23.797 Y69.962 E15.8231
G1 X23.803 Y69.931 E15.8243
G1 X23.888 Y69.595 E15.8370
G1 X23.897 Y69.564 E15.8381
G1 X24.447 Y68.062 E15.8967
G1 X24.459 Y68.035 E15.8978
G1 X24.599 Y67.743 E15.9096
G1 X24.614 Y67.717 E15.9107
G1 X25.607 Y66.086 E15.9806
G1 X25.609 Y66.083 E15.9807
G1 X25.630 Y66.050 E15.9821
G1 X25.632 Y66.047 E15.9823
G1 X25.800 Y65.786 E15.9936
G1 X25.819 Y65.760 E15.9948
G1 X26.044 Y65.481 E16.0079
G1 X26.066 Y65.457 E16.0091
G1 X28.039 Y63.496 E16.1109
G1 X28.066 Y63.473 E16.1122
G1 X28.373 Y63.232 E16.1265
G1 X28.403 Y63.212 E16.1278
G1 X30.227 Y62.104 E16.2058
G1 X30.252 Y62.091 E16.2069
G92 E0
G1 E-4.0000 F4800
G1 X30.435 Y62.446 F4800
G1 E0.0000 F4800
G92 E0
G1 X30.698 Y62.319 E0.0107 F1620
G1 X30.707 Y62.315 E0.0111
G1 X32.132 Y61.783 E0.0667
G1 X32.143 Y61.780 E0.0671
G1 X32.464 Y61.698 E0.0793
G1 X32.474 Y61.696 E0.0796
G1 X35.138 Y61.312 E0.1781
G1 X35.145 Y61.312 E0.1783
G1 X35.366 Y61.296 E0.1865
G1 X35.373 Y61.295 E0.1867
G1 X164.661 Y61.295 E4.9169
G1 X164.671 Y61.296 E4.9172
G1 X164.960 Y61.323 E4.9278
G1 X164.969 Y61.324 E4.9282
G1 X168.352 Y61.965 E5.0542
G1 X168.369 Y61.970 E5.0548
G1 X168.864 Y62.155 E5.0741
G1 X168.880 Y62.162 E5.0748
G1 X171.690 Y63.800 E5.1938
G1 X173.277 Y63.800 E5.2519
G1 X173.351 Y63.830 E5.2548
G1 X175.165 Y65.644 E5.3486
G1 X175.195 Y65.718 E5.3515
G1 X175.195 Y68.361 E5.4482
G1 X175.373 Y68.727 E5.4631
G1 X175.376 Y68.736 E5.4635
G1 X175.479 Y69.010 E5.4742
G1 X175.482 Y69.019 E5.4745
G1 X176.037 Y71.079 E5.5526
G1 X176.039 Y71.088 E5.5529
G1 X176.088 Y71.382 E5.5638
G1 X176.089 Y71.391 E5.5642
G1 X176.190 Y72.801 E5.6159
G1 X176.190 Y72.804 E5.6160
G1 X176.194 Y72.915 E5.6200
G1 X176.195 Y72.919 E5.6202
G1 X176.195 Y127.135 E7.6038
G1 X176.194 Y127.142 E7.6040
G1 X176.179 Y127.361 E7.6120
G1 X176.178 Y127.368 E7.6123
G1 X175.809 Y129.971 E7.7085
G1 X175.806 Y129.981 E7.7089
G1 X175.727 Y130.298 E7.7208
G1 X175.724 Y130.308 E7.7212
G1 X175.180 Y131.792 E7.7790
G1 X175.176 Y131.802 E7.7794
G1 X175.043 Y132.078 E7.7906
G1 X175.038 Y132.086 E7.7910
G1 X173.902 Y133.944 E7.8706
G1 X173.896 Y133.954 E7.8711
G1 X173.665 Y134.246 E7.8847
G1 X173.657 Y134.255 E7.8851
G1 X171.687 Y136.212 E7.9867
G1 X171.678 Y136.220 E7.9871
G1 X171.389 Y136.446 E8.0006
G1 X171.380 Y136.452 E8.0010
G1 X169.479 Y137.607 E8.0824
G1 X169.464 Y137.614 E8.0830
G1 X168.986 Y137.805 E8.1018
G1 X168.970 Y137.810 E8.1024
G1 X165.034 Y138.667 E8.2498
G1 X165.024 Y138.668 E8.2502
G1 X164.693 Y138.704 E8.2623
G1 X164.682 Y138.705 E8.2627
G1 X35.390 Y138.705 E12.9930
G1 X35.384 Y138.704 E12.9932
G1 X35.197 Y138.693 E13.0001
G1 X35.191 Y138.693 E13.0003
G1 X33.013 Y138.428 E13.0806
G1 X32.997 Y138.425 E13.0812
G1 X32.494 Y138.275 E13.1004
G1 X32.479 Y138.269 E13.1010
G1 X28.336 Y136.226 E13.2700
G1 X28.323 Y136.218 E13.2706
G1 X27.916 Y135.928 E13.2888
G1 X27.903 Y135.918 E13.2894
G1 X26.741 Y134.769 E13.3492
G1 X26.736 Y134.763 E13.3495
G1 X26.579 Y134.583 E13.3583
G1 X26.575 Y134.577 E13.3585
G1 X25.666 Y133.348 E13.4144
G1 X25.661 Y133.341 E13.4148
G1 X25.513 Y133.095 E13.4252
G1 X25.508 Y133.087 E13.4256
G1 X24.627 Y131.273 E13.4994
G1 X24.624 Y131.264 E13.4997
G1 X24.521 Y130.990 E13.5104
G1 X24.518 Y130.981 E13.5108
G1 X23.963 Y128.921 E13.5888
G1 X23.961 Y128.912 E13.5892
G1 X23.912 Y128.618 E13.6001
G1 X23.910 Y128.609 E13.6004
G1 X23.810 Y127.199 E13.6521
G1 X23.809 Y127.196 E13.6523
G1 X23.805 Y127.085 E13.6563
G1 X23.805 Y127.081 E13.6564
G1 X23.805 Y72.865 E15.6400
G1 X23.806 Y72.858 E15.6403
G1 X23.821 Y72.639 E15.6483
G1 X23.822 Y72.632 E15.6485
G1 X24.192 Y70.029 E15.7448
G1 X24.194 Y70.018 E15.7451
G1 X24.273 Y69.702 E15.7571
G1 X24.276 Y69.692 E15.7574
G1 X24.820 Y68.209 E15.8153
G1 X24.823 Y68.200 E15.8156
G1 X24.956 Y67.926 E15.8267
G1 X24.960 Y67.917 E15.8271
G1 X25.948 Y66.295 E15.8966
G1 X25.969 Y66.263 E15.8979
G1 X26.130 Y66.012 E15.9088
G1 X26.137 Y66.003 E15.9092
G1 X26.349 Y65.741 E15.9215
G1 X26.356 Y65.733 E15.9219
G1 X28.313 Y63.788 E16.0229
G1 X28.322 Y63.780 E16.0233
G1 X28.611 Y63.554 E16.0367
G1 X28.620 Y63.548 E16.0372
G1 X30.426 Y62.451 E16.1145
G1 X30.435 Y62.446 E16.1148
G92 E0
G1 E-4.0000 F4800
; inner perimeter
G1 X32.444 Y66.256 F4800
G1 E0.0000 F4800
G92 E0
G1 X33.369 Y65.912 E0.0361 F1350
G1 X35.563 Y65.595 E0.1172
G1 X164.413 Y65.595 E4.8313
G1 X167.106 Y66.106 E4.9316
G1 X169.353 Y67.415 E5.0268
G1 X170.053 Y68.100 E5.0626
G1 X170.895 Y68.100 E5.0934
G1 X170.895 Y69.350 E5.1391
G1 X171.395 Y70.380 E5.1810
G1 X171.819 Y71.952 E5.2406
G1 X171.895 Y73.013 E5.2795
G1 X171.895 Y126.948 E7.2528
G1 X171.590 Y129.090 E7.3319
G1 X171.233 Y130.067 E7.3700
G1 X170.400 Y131.429 E7.4284
G1 X168.879 Y132.940 E7.5068
G1 X167.604 Y133.714 E7.5614
G1 X164.399 Y134.405 E7.6814
G1 X35.551 Y134.405 E12.3954
G1 X33.977 Y134.214 E12.4534
G1 X30.622 Y132.559 E12.5903
G1 X29.910 Y131.855 E12.6269
G1 X29.269 Y130.989 E12.6663
G1 X28.605 Y129.620 E12.7220
G1 X28.181 Y128.048 E12.7816
G1 X28.105 Y126.987 E12.8205
G1 X28.105 Y73.052 E14.7938
G1 X28.410 Y70.909 E14.8729
G1 X28.768 Y69.932 E14.9110
G1 X29.593 Y68.578 E14.9690
G1 X31.121 Y67.060 E15.0478
G1 X32.444 Y66.256 E15.1045
G92 E0
G1 E-4.0000 F4800
; inner perimeter
G1 X32.251 Y65.859 F4800
G1 E0.0000 F4800
G92 E0
G1 X33.259 Y65.483 E0.0394 F1080
G1 X35.531 Y65.155 E0.1233
G1 X164.454 Y65.155 E4.8401
G1 X167.262 Y65.687 E4.9447
G1 X169.621 Y67.062 E5.0446
G1 X170.233 Y67.660 E5.0759
G1 X171.335 Y67.660 E5.1162
G1 X171.335 Y69.249 E5.1743
G1 X171.809 Y70.225 E5.2140
G1 X172.254 Y71.878 E5.2767
G1 X172.335 Y72.998 E5.3177
G1 X172.335 Y126.979 E7.2927
G1 X172.020 Y129.198 E7.3747
G1 X171.631 Y130.259 E7.4161
G1 X170.748 Y131.704 E7.4780
G1 X169.152 Y133.289 E7.5603
G1 X167.769 Y134.129 E7.6195
G1 X164.446 Y134.845 E7.7439
G1 X35.524 Y134.845 E12.4606
G1 X33.850 Y134.641 E12.5223
G1 X30.364 Y132.922 E12.6645
G1 X29.577 Y132.144 E12.7050
G1 X28.891 Y131.218 E12.7472
G1 X28.191 Y129.775 E12.8059
G1 X27.745 Y128.122 E12.8685
G1 X27.665 Y127.002 E12.9096
G1 X27.665 Y73.021 E14.8845
G1 X27.981 Y70.802 E14.9665
G1 X28.369 Y69.740 E15.0079
G1 X29.231 Y68.327 E15.0684
G1 X29.247 Y68.301 E15.0696
G1 X30.848 Y66.711 E15.1521
G1 X32.251 Y65.859 E15.2122
G92 E0
G1 E-4.0000 F4800
; outer perimeter
G1 X32.059 Y65.461 F4800
G1 E0.0000 F4800
G92 E0
G1 X33.150 Y65.054 E0.0426 F810
G1 X35.500 Y64.715 E0.1295
G1 X164.495 Y64.715 E4.8489
G1 X167.419 Y65.269 E4.9578
G1 X169.890 Y66.710 E5.0624
G1 X170.412 Y67.220 E5.0891
G1 X171.775 Y67.220 E5.1390
G1 X171.775 Y69.148 E5.2095
G1 X172.223 Y70.071 E5.2471
G1 X172.690 Y71.805 E5.3128
G1 X172.775 Y72.982 E5.3560
G1 X172.775 Y127.010 E7.3327
G1 X172.449 Y129.306 E7.4175
G1 X172.029 Y130.452 E7.4621
G1 X171.095 Y131.979 E7.5276
G1 X169.425 Y133.638 E7.6137
G1 X167.941 Y134.539 E7.6773
G1 X167.924 Y134.546 E7.6779
G1 X164.493 Y135.285 E7.8064
G1 X35.497 Y135.285 E12.5258
G1 X33.723 Y135.069 E12.5912
G1 X30.105 Y133.285 E12.7388
G1 X29.243 Y132.433 E12.7831
G1 X28.513 Y131.446 E12.8280
G1 X27.777 Y129.929 E12.8897
G1 X27.310 Y128.195 E12.9554
G1 X27.225 Y127.018 E12.9986
G1 X27.225 Y72.990 E14.9753
G1 X27.551 Y70.694 E15.0601
G1 X27.971 Y69.548 E15.1048
G1 X28.858 Y68.093 E15.1671
G1 X28.903 Y68.023 E15.1702
G1 X30.575 Y66.362 E15.2564
G1 X32.059 Y65.461 E15.3199
G92 E0
G1 X33.150 Y65.054 E-1.5527 F3600
G1 X34.966 Y64.792 E-4.0000
G1 X35.500 Y64.715 F3600
G1 X36.961 Y64.715 F3600
; inner perimeter
G1 X41.286 Y89.228 F4800
G1 E0.0000 F4800
G92 E0
G1 X40.065 Y89.763 E0.0488 F1350
G1 X39.255 Y90.361 E0.0856
G1 X38.743 Y90.675 E0.1076
G1 X37.878 Y91.413 E0.1492
G1 X37.346 Y91.829 E0.1739
G1 X36.930 Y92.361 E0.1986
